X: 64
T: No wen ji ya
%%abc-version 2.0
%%abcx-abcm2ps-target-version 5.9.1 (29 Sep 2008)
%%abc-creator hum2abc beta
%%abcx-conversion-date 2013/10/02 07:44:27
%%abc-edited-by Helmut Schaffrath
%%humdrum-veritas 2409080767
%%humdrum-veritas-data 305548302
%%continueall 1
%%barnumbers 0
L: 1/8
M: 3/4
K: Bb
g2c' b g fd2 [I:setbarnb 1]| 
c' f'd'4 | 
[M:4/4]c' d' g' f' d' c' b g | 
[M:3/4]b d'c'4 | 
[M:4/4]b c'd'2d' f'g2 | 
[M:3/4]f g2<b2c' | 
[M:4/4]f g c' b g f d d | 
f bg4 |]  



